X:469
T:Reel 469
M:4/4
K:Gmaj
L:1/8
dc|BGG (3BAG d2dg|edce dcBG|BG (3GGG d2dB||AGAG FGD:||2AGAG A2dc|BG (3GFG DG (3GFG |BGBd edg2|BG (3GGG dG (3Bcd |egfd edcA|BG (3GFG DG (3GFG |BGdG edcd|cdef gedB|cAFA =fdc2|
